X:1
T:Tell It Out with Gladness
T:John Robson Sweney
T:Tell It Out with Gladness
T:Public Domain
T:Public Domain
T:Public Domain
C:John Robson Sweney
Z:Public Domain
%%score ( 1 2 ) ( 3 4 )
L:1/8
M:4/4
K:Ab
V:1 treble 
V:2 treble 
V:3 bass 
V:4 bass 
V:1
 EE | [CA][CA][CA][CA] [CA]2 [EA][EB] | [Ec]3 [Fd] [Ec][EB][EG][EA] | %3
w: 1.~Are you|in the Lord, Tell it out with|glad- ness; Are you trust- ing|
w: 2.~Are you|in the light, Tell it out with|glad- ness; Is your hope of|
w: 3.~Do you|place of prayer, Tell it out with|glad- ness; Do you find a|
 [EB][EB][EB][EB] [EB]2 [EB][Ec] | [Gd]3 [Ac] [EB][EA][Ec][Ed] | [Ee][Ee][Ee][Ec] [Gd]2 [EB][Ec] | %6
w: in His Word, Tell it out with|glad- ness; If a Sav- ior’s|love you feel, Can your soul its|
w: glor- y bright, Tell it out with|glad- ness; Have you per- fect|peace with- in, Are you try- ing|
w: bless- ing there, Tell it out with|glad- ness; While your thoughts on|Je- sus dwell, Does your soul with|
 [Ed][Ed][Ed][EB] [Ec]2 [Ec][DB] | [CA][CA][EG][DF] [CE]2 [EA][FB] | [Ec]3 [EB] [EB][EA] || %9
w: power con- ceal? To the world your|joy re- veal, Tell it out with|glad- ness. * *|
w: still to win Con- stant vic- tory|o- ver sin, Tell it out with|glad- ness. Tell it|
w: rap- ture swell? Can you say that|all is well? Tell it out with|glad- ness. * *|
"^Refrain" cd | (z2 .AA z2) cd | [Ae]3 [Ac] [Ac][GB][GB][Ac] | [Bd]6 [GB][Ac] | %13
w: ||||
w: out, tell|* * it out|glad- ness, Tell it out, tell|it out with|
w: ||||
 [Bd]3 [Ac] [GB][EA][Ec][DB] | [CA]4- [CA][CA][EB][_Gc] | [Fd]6 [Ae][Af] | %16
w: |||
w: glad- ness, Tell the world the|joy * you feel, Tell|it out, tell|
w: |||
 [Ae]2 [Ac][Ad] [Ac]3 [GB] | [EB] [EA]4- [EA] |] %18
w: ||
w: it out with glad- ness.||
w: ||
V:2
 EE | x8 | x8 | x8 | x8 | x8 | x8 | x8 | x6 || x2 | (e4 A4) | x8 | x8 | x8 | x8 | x8 | x8 | x6 |] %18
w: hap- py||||||||||||||||||
w: walk- ing||||||||||with *||||||||
w: love the||||||||||||||||||
V:3
 E,E, | E,E,E,E, E,2 [C,A,][E,G,] | A,3 A, [E,A,][E,G,][E,B,][E,C] | %3
 [E,G,][E,G,][E,G,][E,G,] [E,G,]2 [E,G,][E,A,] | [E,B,]3 [E,E] [A,D][A,C]A,[A,B,] | %5
 [A,C][A,C][A,C]A, [E,B,]2 [E,G,][E,A,] | [E,B,][E,B,][E,B,][E,G,] [A,,A,]2 [A,,E,][A,,E,] | %7
 [A,,E,][A,,A,][D,A,][D,A,] [A,,A,]2 [C,A,][D,A,] | [E,A,]3 [E,D] [A,,D][A,,C] || A,B, | %10
 (z2 .A,A, A,2 A,)[A,B,] | [A,C]3 [A,E] [E,E][E,E] z2 | z2 ([E,E][E,E]) E,2 E,E, | %13
 [E,E]3 [A,E] [E,D][A,C][A,,A,][A,,E,] | ([A,,E,][A,,E,][A,,E,][A,,E,] [A,,E,]2) [E,G,]A, | %15
 ([D,A,][D,A,][D,A,][D,A,] [D,A,]2) [C,A,][D,D] | [E,C]2 [E,E][E,F] [E,E]3 [E,D] | %17
 [A,,D] [A,,C]4- [A,,C] |] %18
V:4
 E,E, | E,E,E,E, E,2 x2 | A,3 A, x4 | x8 | x6 A, x | x3 A, x4 | x8 | x8 | x6 || x2 | C4 x4 | x8 | %12
 x4 E4- | x8 | x8 | x8 | x8 | x6 |] %18

